icon-svg/motion-sensor-movement-off.svg

<svg xmlns="http://www.w3.org/2000/svg" viewBox="0 0 24 24"><path fill="#44739e" d="M21.852 20.424 3.428 2l-1.28 1.28L3.15 4.281c-.028.12-.047.241-.047.362v6.833c0 .937.761 1.706 1.688 1.706h6.203l.38-.667.334.333-1.085 1.873a.692.692 0 0 0 .594 1.039.68.68 0 0 0 .602-.352l.89-1.558 1.289 1.289-1.669 3.236H9.501c-.38 0-.695.315-.695.695s.315.695.695.695h3.273c.26 0 .501-.148.621-.38l1.373-2.661 2.754 4.924a.69.69 0 0 0 .612.352.7.7 0 0 0 .343-.093.697.697 0 0 0 .268-.945l-1.39-2.476 3.208 3.208ZM8.157 9.77c-.928 0-1.688-.77-1.688-1.706a1.5 1.5 0 0 1 .056-.408l2.049 2.058a1.5 1.5 0 0 1-.417.056m12.638 4.534h-2.059l-1.761-2.624c-.01-.009-.019-.009-.028-.018a.8.8 0 0 0-.204-.186c-.01-.009-.019-.018-.028-.018a.8.8 0 0 0-.297-.075c-.009 0-.009-.009-.018-.009h-2.17l4.311 4.312h2.254a.7.7 0 0 0 .695-.696.687.687 0 0 0-.695-.686m-4.776-4.96c0-.993.779-1.79 1.744-1.79s1.743.807 1.743 1.79-.779 1.789-1.743 1.789-1.744-.797-1.744-1.789m-2.818-4.701c0-.937-.761-1.707-1.688-1.707H5.792l7.409 7.409Zm-5.044.139a.555.555 0 0 1-.557-.566c0-.315.251-.575.557-.575s.565.26.565.575-.25.566-.565.566"/></svg>

<svg xmlns="http://www.w3.org/2000/svg" viewBox="0 0 24 24"><path d="M21.852 20.424L3.428 2 2.148 3.28 3.15 4.281C3.122 4.401 3.103 4.522 3.103 4.643V11.476C3.103 12.413 3.864 13.182 4.791 13.182H10.994L11.374 12.515 11.708 12.848 10.623 14.721C10.428 15.055 10.549 15.482 10.873 15.667 10.985 15.732 11.105 15.76 11.217 15.76 11.458 15.76 11.689 15.639 11.819 15.408L12.709 13.85 13.998 15.139 12.329 18.375H9.501C9.121 18.375 8.806 18.69 8.806 19.07S9.121 19.765 9.501 19.765H12.774C13.034 19.765 13.275 19.617 13.395 19.385L14.768 16.724 17.522 21.648C17.651 21.879 17.883 22 18.134 22 18.245 22 18.365 21.972 18.477 21.907 18.81 21.722 18.931 21.295 18.745 20.962L17.355 18.486 20.563 21.694 21.852 20.424ZM8.157 9.77C7.229 9.77 6.469 9 6.469 8.064 6.469 7.925 6.488 7.786 6.525 7.656L8.574 9.714C8.444 9.752 8.305 9.77 8.157 9.77ZM20.795 14.304H18.736L16.975 11.68C16.965 11.671 16.956 11.671 16.947 11.662 16.891 11.587 16.826 11.532 16.743 11.476 16.733 11.467 16.724 11.458 16.715 11.458 16.622 11.411 16.52 11.393 16.418 11.383 16.409 11.383 16.409 11.374 16.4 11.374H14.23L18.541 15.686H20.795C21.175 15.686 21.49 15.37 21.49 14.99 21.49 14.61 21.184 14.304 20.795 14.304ZM16.019 9.344C16.019 8.351 16.798 7.554 17.763 7.554S19.506 8.361 19.506 9.344 18.727 11.133 17.763 11.133 16.019 10.336 16.019 9.344ZM13.201 4.643C13.201 3.706 12.44 2.936 11.513 2.936H5.792L13.201 10.345V4.643ZM8.157 4.782C7.841 4.782 7.6 4.531 7.6 4.216 7.6 3.901 7.851 3.641 8.157 3.641S8.722 3.901 8.722 4.216C8.722 4.531 8.472 4.782 8.157 4.782Z" fill="#44739e"/></svg>
